icons/glyphs/glyph-video.svg

<?xml version="1.0" encoding="UTF-8" standalone="no"?><svg height="22" viewBox="0 0 22 22" width="22" xmlns="http://www.w3.org/2000/svg"><sodipodi:namedview/><metadata><rdf:RDF><cc:Work><dc:format>image/svg+xml</dc:format><dc:type/><dc:title/></cc:Work></rdf:RDF></metadata><path d="m0 0v22h22v-22zm1.3164062 1.5546875h3.5v3.5h-3.5zm15.8671878.0351563h3.5v3.5h-3.5zm-7.933594.0097656h3.5v3.5h-3.5zm-7.9335938 15.2539066h3.5v3.5h-3.5zm15.8671878.035156h3.5v3.5h-3.5zm-7.933594.011719h3.5v3.5h-3.5z" fill="#d0d0d0" stroke-linecap="square" stroke-width="1.1"/></svg>

<?xml version="1.0" encoding="UTF-8" standalone="no"?>
<!-- Created with Inkscape (http://www.inkscape.org/) -->

<svg
   xmlns:dc="http://purl.org/dc/elements/1.1/"
   xmlns:cc="http://creativecommons.org/ns#"
   xmlns:rdf="http://www.w3.org/1999/02/22-rdf-syntax-ns#"
   xmlns:svg="http://www.w3.org/2000/svg"
   xmlns="http://www.w3.org/2000/svg"
   xmlns:sodipodi="http://sodipodi.sourceforge.net/DTD/sodipodi-0.dtd"
   xmlns:inkscape="http://www.inkscape.org/namespaces/inkscape"
   width="22"
   height="22"
   viewBox="0 0 22 22"
   version="1.1"
   id="svg8"
   inkscape:version="0.92+devel 15687 custom"
   sodipodi:docname="glyph-video.svg">
  <defs
     id="ol-defs">
    <style
       id="current-color-scheme">      .ColorScheme-Text {
        color:#d0d0d0;
        stop-color:#d0d0d0;
      }
      .ColorScheme-Background {
        color:#212121;
        stop-color:#212121;
      }
      .ColorScheme-Highlight {
        color:#0039a9;
        stop-color:#0039a9;
      }
      .ColorScheme-ViewText {
        color:#d0d0d0;
        stop-color:#d0d0d0;
      }
      .ColorScheme-ViewBackground {
        color:#19191b;
        stop-color:#19191b;
      }
      .ColorScheme-ViewHover {
        color:#005cc7;
        stop-color:#005cc7;
      }
      .ColorScheme-ViewFocus{
        color:#002466;
        stop-color:#002466;
      }
      .ColorScheme-ButtonText {
        color:#d0d0d0;
        stop-color:#d0d0d0;
      }
      .ColorScheme-ButtonBackground {
        color:#232323;
        stop-color:#232323;                             
      }                                                 
      .ColorScheme-ButtonHover {                        
        color:#005cc7;                                  
        stop-color:#005cc7;                             
      }                                                 
      .ColorScheme-ButtonFocus{                         
        color:#0039a9;                                  
        stop-color:#0039a9;                             
      }</style>
  </defs>
  <sodipodi:namedview
     id="base"
     pagecolor="#002266"
     bordercolor="#ffffff"
     borderopacity="0.46666667"
     inkscape:pageopacity="0"
     inkscape:pageshadow="2"
     inkscape:zoom="37.000002"
     inkscape:cx="9.6614188"
     inkscape:cy="10.89957"
     inkscape:document-units="px"
     inkscape:current-layer="svg8"
     inkscape:document-rotation="0"
     showgrid="false"
     inkscape:showpageshadow="false"
     borderlayer="true"
     units="px"
     fit-margin-top="0"
     fit-margin-left="0"
     fit-margin-right="0"
     fit-margin-bottom="0"
     inkscape:window-width="1920"
     inkscape:window-height="1051"
     inkscape:window-x="0"
     inkscape:window-y="0"
     inkscape:window-maximized="1"
     inkscape:snap-page="true" />
  <metadata
     id="metadata5">
    <rdf:RDF>
      <cc:Work
         rdf:about="">
        <dc:format>image/svg+xml</dc:format>
        <dc:type
           rdf:resource="http://purl.org/dc/dcmitype/StillImage" />
        <dc:title />
      </cc:Work>
    </rdf:RDF>
  </metadata>
  <path
     style="vector-effect:none;fill:#d0d0d0;stroke-width:1.10000002;stroke-linecap:square"
     d="M 0 0 L 0 22 L 22 22 L 22 0 L 0 0 z M 1.3164062 1.5546875 L 4.8164062 1.5546875 L 4.8164062 5.0546875 L 1.3164062 5.0546875 L 1.3164062 1.5546875 z M 17.183594 1.5898438 L 20.683594 1.5898438 L 20.683594 5.0898438 L 17.183594 5.0898438 L 17.183594 1.5898438 z M 9.25 1.5996094 L 12.75 1.5996094 L 12.75 5.0996094 L 9.25 5.0996094 L 9.25 1.5996094 z M 1.3164062 16.853516 L 4.8164062 16.853516 L 4.8164062 20.353516 L 1.3164062 20.353516 L 1.3164062 16.853516 z M 17.183594 16.888672 L 20.683594 16.888672 L 20.683594 20.388672 L 17.183594 20.388672 L 17.183594 16.888672 z M 9.25 16.900391 L 12.75 16.900391 L 12.75 20.400391 L 9.25 20.400391 L 9.25 16.900391 z "
     id="rect4264"
     inkscape:label="#glyph" />
</svg>
